svg/u1f35f.svg

<svg viewBox="0 0 128 128" xmlns="http://www.w3.org/2000/svg">
  <radialGradient id="SVGID_1_" cx="64.5868" cy="-7.8723" gradientUnits="userSpaceOnUse" r="83.1284">
    <stop offset="0.447" stop-color="#FCC216"/>
    <stop offset="0.5897" stop-color="#FABB16"/>
    <stop offset="0.7939" stop-color="#F3A814"/>
    <stop offset="0.9212" stop-color="#ED9913"/>
  </radialGradient>
  <path d="M29.46,59.86l-2.62-5.69l-6.41-24.92l-1.63-3.88l2.35-5.78c0,0,3.33,0.47,5.87,3.34 c3.09,3.5,8.13,13.97,8.13,13.97l-1.06-8.26l5.75-14.91c0,0,2.52-0.27,3.19,0.42c1.19,1.22,3.22,9.78,3.94,12.49 c0.72,2.71,1.72,6.41,2.98,8.03s2.8,1.99,2.8,1.99l4.51-17.42l1.08-15.8c0,0,1.58-0.01,3.79,0.45c1.67,0.35,2.79,0.92,3.33,1.59 C66,6.15,66.02,16.8,66.02,16.8s9.53-8.12,9.84-8.03c0.66,0.18,2.71,0.63,3.79,1.81c1.08,1.17,0.18,5.51-0.63,8.4 c-0.81,2.89-3.61,12.28-3.61,12.28l2.53-0.96l0.56,0.54l4.71-7.23c0,0,1.7-0.01,3.08,0.67c1.5,0.74,2.4,2.56,2.4,2.56l12.1-17.51 c0,0,0.92,0.82,1.73,1.63c0.81,0.81,1.38,1.38,1.42,2.2c0.04,0.81-2.88,6.2-4.23,8.91s-3.61,8.13-3.61,8.13l9.84-7.51 c0,0,3.26,0.46,3.36,1.54c0.09,1.08-1.64,3.08-3.36,6.06s-4.6,8.76-5.6,10.74s0.36,2.08,0.36,2.08l11.79-7.45 c0,0,2.54,0.52,2.78,1.7c0.27,1.35-2.65,4.04-4.55,6.2c-1.9,2.17-5.96,7.4-8.03,11.47s-3.46,6.61-3.46,6.61L81.28,79.45l-47.76-2.89 L29.46,59.86z" fill="url(#SVGID_1_)"/>
  <path d="M89.17,40.2c-1.2,0.28-4.99,6.84-8.53,16.82c-2.13,6-3.54,12.56-3.46,15.7S82,74.9,82,74.9l2.01-6.52 c0,0,2.25-7.65,4.91-13.36c3.11-6.7,7.14-10.96,6.84-11.99C95.36,41.65,90.86,39.8,89.17,40.2z" fill="#FBDE93"/>
  <path d="M101.08,23.14c-1.68,0.98-5.47,7.32-6.6,9.74s-1.17,6.97,0.07,7.56c1.53,0.72,3.23-4.42,5.81-8.69 c2.58-4.27,5.63-9.1,5.63-9.1S103.01,22.01,101.08,23.14z" fill="#FBDE93"/>
  <path d="M107.44,35.7c-2.57,1.09-7.36,6.2-9.02,8.77c-3.06,4.75-5.31,10.06-6.12,12.23 c-0.8,2.17-1.45,5.15,1.05,3.78c2.5-1.37,5.71-7.81,9.82-13.6c4.76-6.72,9.34-11.27,9.34-11.27S109.53,34.81,107.44,35.7z" fill="#FBDE93"/>
  <path d="M96.65,7.04c-0.99-0.12-3.7,7.08-5.23,10.54s-3.57,8.04-3.57,8.04s-1.18,9.11,0.51,9.27 c1.69,0.16,5-10.95,7.47-16.04c2.41-4.96,4.95-9.55,4.95-9.55S98.58,7.28,96.65,7.04z" fill="#FBDE93"/>
  <path d="M78.85,25.08c-0.89,0.94-0.39,5.78-0.39,5.78s3.46,2.58,4.11,2.01s0.68-9.31,0.68-9.31 S80.3,23.55,78.85,25.08z" fill="#FBDE93"/>
  <path d="M71.7,31.67c-1.25,1.05-0.4,5.97-0.72,10.38c-0.48,6.6-2.41,20.12-2.98,24.07s-1.13,8.29-1.13,8.29 l6.2-0.97c0,0,2.41-18.43,3.38-25.52s2.41-17.14,1.45-17.71C76.93,29.66,73.23,30.38,71.7,31.67z" fill="#FBDE93"/>
  <path d="M70.95,8.16c-1.58,0.3-4.92,8.64-4.92,8.64s-0.2,6.02-0.2,8.92s-0.56,6.36,0.4,6.36 s2.82-5.55,4.75-10.38c1.93-4.83,4.89-12.93,4.89-12.93S73.19,7.74,70.95,8.16z" fill="#FBDE93"/>
  <path d="M52.78,5.11c-1.09,1.15,0.64,4.11,0.8,12.23c0.16,8.13-0.84,19.31-0.84,19.31s0.86-0.06,1.4,1.61 c0.46,1.41,1.21,9.98,2.17,9.66c0.97-0.32,2.17-6.04,3.14-15.7c0.97-9.66,0.56-17.14,0.24-20.2c-0.32-3.06-1.36-8.6-1.36-8.6 S54.39,3.42,52.78,5.11z" fill="#FBDE93"/>
  <path d="M39.84,13.73c0,0-4.65,0.33-5.93,2.83c-1.29,2.5-0.88,3.71-0.64,6.12s1,7.22,1,7.22 s4.27,5.31,6.6,4.02C43.2,32.64,39.84,13.73,39.84,13.73z" fill="#FBDE93"/>
  <path d="M21.15,19.59c0,0-2.58-0.48-4.11-0.16c-1.53,0.32-1.45,1.77-0.72,2.74c0.72,0.97,4.05,6.99,4.05,6.99 s0.99,0.02,2.28,0.5c1.29,0.48,3.5,1.68,3.41-0.25C25.9,26.04,21.15,19.59,21.15,19.59z" fill="#FBDE93"/>
  <path d="M28.42,57.6c0,0-4.86-9.83-8.48-15.23s-7.41-9.58-7.41-10.46c0-0.89,2.5-1.77,3.94-2.17 s3.95-0.49,3.95-0.49s5.95,10.06,8.37,15.54s4.67,11.86,4.11,12.64C32.39,58.13,28.78,57.66,28.42,57.6z" fill="#FBDE93"/>
  <path d="M31.69,40.04c-0.38,1.41,1.45,7.81,2.58,12.4s2.5,9.42,2.5,9.42l3.86,7.89l4.27-1.53 c0,0-2.25-4.35-3.54-8.85C40.07,54.85,38.4,40.83,36.68,39C35.48,37.71,31.94,39.16,31.69,40.04z" fill="#FBDE93"/>
  <path d="M45.06,38.43c-1.01,0.66,0.56,11.35,1.37,15.78s2.5,9.1,3.38,11.27c0.89,2.17,3.46,7.65,3.46,7.65 s2.66,3.14,2.74,2.82s1.21-4.27,1.21-4.27S53.67,61.21,53.1,56.7c-0.56-4.51-1.45-18.19-2.33-18.67S46.67,37.39,45.06,38.43z" fill="#FBDE93"/>
  <path d="M63.01,38.67c-1.21,1.12-2.41,15.94-2.9,21.41s-0.89,13.52-0.89,13.52l5.39-0.4 c0,0,2.01-19.88,2.33-22.46c0.32-2.58,1.77-8.45,1.05-10.79C67.27,37.63,64.05,37.71,63.01,38.67z" fill="#FBDE93"/>
  <path d="M26.82,59.43c-0.34,0.77,10.17,58.28,10.34,59.14c0.17,0.86-0.17,1.64,1.46,2.41 c1.64,0.77,4.2,1.18,5.84,1.36c1.64,0.17,12.93,0.19,13.02-1.18c0.09-1.38,33.84-50.54,33.84-50.54s6.22-10.43,5.79-11.29 c-0.43-0.86-2.11-0.46-3.94,0.79c-1.83,1.26-3.52,4.37-8.66,7.82c-5.57,3.74-12.95,4.53-20.37,4.44 c-6.84-0.09-14.97-1.33-20.79-5.64c-5.12-3.8-6.63-6.54-11.19-7.75C28.14,57.92,26.82,59.43,26.82,59.43z" fill="#FD703F"/>
  <path d="M34.77,63.19l9.54,59.17c0,0,11.37,1.64,20.23,1.81c8.87,0.17,19.44-1.68,19.44-1.68l7.68-25.96 l6.52-34.25c0,0-1.61-1.61-3.42-0.28c-1.39,1.02-5.68,7.66-13.26,10.59c-8.55,3.3-23.96,3.54-33.58-0.52 C39.1,68.36,36.41,63.53,34.77,63.19z" fill="#FF2A23"/>
  <path d="M89.51,120.67c-1.94,1.16-6.46,1.94-6.46,1.94s4.48-21.78,6.97-33.15s6.08-30.6,6.08-30.6 s1.44-0.23,2.92-0.05c1.68,0.21,2.68,0.7,3.02,1.23c0.55,0.86-2.76,16.92-6,32.6C93.08,107.04,90.54,120.06,89.51,120.67z" fill="#DC0D25"/>
</svg>

<svg viewBox="0 0 128 128" xmlns="http://www.w3.org/2000/svg">
  <defs>
    <radialGradient id="SVGID_1_" cx="64.5868" cy="-7.8723" gradientUnits="userSpaceOnUse" r="83.1284">
      <stop offset="0.447" stop-color="#FCC216"/>
      <stop offset="0.5897" stop-color="#FABB16"/>
      <stop offset="0.7939" stop-color="#F3A814"/>
      <stop offset="0.9212" stop-color="#ED9913"/>
    </radialGradient>
  </defs>
  <path d="M29.46,59.86 L26.84,54.17 L20.43,29.25 L18.8,25.37 L21.15,19.59 C21.15,19.59 24.48,20.06 27.02,22.93 C30.11,26.43 35.15,36.9 35.15,36.9 L34.09,28.64 L39.84,13.73 C39.84,13.73 42.36,13.46 43.03,14.15 C44.22,15.37 46.25,23.93 46.97,26.64 C47.69,29.35 48.69,33.05 49.95,34.67 C51.21,36.29 52.75,36.66 52.75,36.66 L57.26,19.24 L58.34,3.44 C58.34,3.44 59.92,3.43 62.13,3.89 C63.8,4.24 64.92,4.81 65.46,5.48 C66,6.15 66.02,16.8 66.02,16.8 C66.02,16.8 75.55,8.68 75.86,8.77 C76.52,8.95 78.57,9.4 79.65,10.58 C80.73,11.75 79.83,16.09 79.02,18.98 C78.21,21.87 75.41,31.26 75.41,31.26 L77.94,30.3 L78.5,30.84 L83.21,23.61 C83.21,23.61 84.91,23.6 86.29,24.28 C87.79,25.02 88.69,26.84 88.69,26.84 L100.79,9.33 C100.79,9.33 101.71,10.15 102.52,10.96 C103.33,11.77 103.9,12.34 103.94,13.16 C103.98,13.97 101.06,19.36 99.71,22.07 C98.36,24.78 96.1,30.2 96.1,30.2 L105.94,22.69 C105.94,22.69 109.2,23.15 109.3,24.23 C109.39,25.31 107.66,27.31 105.94,30.29 C104.22,33.27 101.34,39.05 100.34,41.03 C99.34,43.01 100.7,43.11 100.7,43.11 L112.49,35.66 C112.49,35.66 115.03,36.18 115.27,37.36 C115.54,38.71 112.62,41.4 110.72,43.56 C108.82,45.73 104.76,50.96 102.69,55.03 C100.62,59.1 99.23,61.64 99.23,61.64 L81.28,79.45 L33.52,76.56 L29.46,59.86 Z" fill="url(#SVGID_1_)"/>
  <path d="M89.17,40.2 C87.97,40.48 84.18,47.04 80.64,57.02 C78.51,63.02 77.1,69.58 77.18,72.72 C77.26,75.86 82,74.9 82,74.9 L84.01,68.38 C84.01,68.38 86.26,60.73 88.92,55.02 C92.03,48.32 96.06,44.06 95.76,43.03 C95.36,41.65 90.86,39.8 89.17,40.2 Z" fill="#FBDE93"/>
  <path d="M101.08,23.14 C99.4,24.12 95.61,30.46 94.48,32.88 C93.35,35.3 93.31,39.85 94.55,40.44 C96.08,41.16 97.78,36.02 100.36,31.75 C102.94,27.48 105.99,22.65 105.99,22.65 C105.99,22.65 103.01,22.01 101.08,23.14 Z" fill="#FBDE93"/>
  <path d="M107.44,35.7 C104.87,36.79 100.08,41.9 98.42,44.47 C95.36,49.22 93.11,54.53 92.3,56.7 C91.5,58.87 90.85,61.85 93.35,60.48 C95.85,59.11 99.06,52.67 103.17,46.88 C107.93,40.16 112.51,35.61 112.51,35.61 C112.51,35.61 109.53,34.81 107.44,35.7 Z" fill="#FBDE93"/>
  <path d="M96.65,7.04 C95.66,6.92 92.95,14.12 91.42,17.58 C89.89,21.04 87.85,25.62 87.85,25.62 C87.85,25.62 86.67,34.73 88.36,34.89 C90.05,35.05 93.36,23.94 95.83,18.85 C98.24,13.89 100.78,9.3 100.78,9.3 C100.78,9.3 98.58,7.28 96.65,7.04 Z" fill="#FBDE93"/>
  <path d="M78.85,25.08 C77.96,26.02 78.46,30.86 78.46,30.86 C78.46,30.86 81.92,33.44 82.57,32.87 C83.22,32.3 83.25,23.56 83.25,23.56 C83.25,23.56 80.3,23.55 78.85,25.08 Z" fill="#FBDE93"/>
  <path d="M71.7,31.67 C70.45,32.72 71.3,37.64 70.98,42.05 C70.5,48.65 68.57,62.17 68,66.12 C67.43,70.07 66.87,74.41 66.87,74.41 L73.07,73.44 C73.07,73.44 75.48,55.01 76.45,47.92 C77.42,40.83 78.86,30.78 77.9,30.21 C76.93,29.66 73.23,30.38 71.7,31.67 Z" fill="#FBDE93"/>
  <path d="M70.95,8.16 C69.37,8.46 66.03,16.8 66.03,16.8 C66.03,16.8 65.83,22.82 65.83,25.72 C65.83,28.62 65.27,32.08 66.23,32.08 C67.19,32.08 69.05,26.53 70.98,21.7 C72.91,16.87 75.87,8.77 75.87,8.77 C75.87,8.77 73.19,7.74 70.95,8.16 Z" fill="#FBDE93"/>
  <path d="M52.78,5.11 C51.69,6.26 53.42,9.22 53.58,17.34 C53.74,25.47 52.74,36.65 52.74,36.65 C52.74,36.65 53.6,36.59 54.14,38.26 C54.6,39.67 55.35,48.24 56.31,47.92 C57.28,47.6 58.48,41.88 59.45,32.22 C60.42,22.56 60.01,15.08 59.69,12.02 C59.37,8.96 58.33,3.42 58.33,3.42 C58.33,3.42 54.39,3.42 52.78,5.11 Z" fill="#FBDE93"/>
  <path d="M39.84,13.73 C39.84,13.73 35.19,14.06 33.91,16.56 C32.62,19.06 33.03,20.27 33.27,22.68 C33.51,25.09 34.27,29.9 34.27,29.9 C34.27,29.9 38.54,35.21 40.87,33.92 C43.2,32.64 39.84,13.73 39.84,13.73 Z" fill="#FBDE93"/>
  <path d="M21.15,19.59 C21.15,19.59 18.57,19.11 17.04,19.43 C15.51,19.75 15.59,21.2 16.32,22.17 C17.04,23.14 20.37,29.16 20.37,29.16 C20.37,29.16 21.36,29.18 22.65,29.66 C23.94,30.14 26.15,31.34 26.06,29.41 C25.9,26.04 21.15,19.59 21.15,19.59 Z" fill="#FBDE93"/>
  <path d="M28.42,57.6 C28.42,57.6 23.56,47.77 19.94,42.37 C16.32,36.97 12.53,32.79 12.53,31.91 C12.53,31.02 15.03,30.14 16.47,29.74 C17.91,29.34 20.42,29.25 20.42,29.25 C20.42,29.25 26.37,39.31 28.79,44.79 C31.21,50.27 33.46,56.65 32.9,57.43 C32.39,58.13 28.78,57.66 28.42,57.6 Z" fill="#FBDE93"/>
  <path d="M31.69,40.04 C31.31,41.45 33.14,47.85 34.27,52.44 C35.4,57.03 36.77,61.86 36.77,61.86 L40.63,69.75 L44.9,68.22 C44.9,68.22 42.65,63.87 41.36,59.37 C40.07,54.85 38.4,40.83 36.68,39 C35.48,37.71 31.94,39.16 31.69,40.04 Z" fill="#FBDE93"/>
  <path d="M45.06,38.43 C44.05,39.09 45.62,49.78 46.43,54.21 C47.24,58.64 48.93,63.31 49.81,65.48 C50.7,67.65 53.27,73.13 53.27,73.13 C53.27,73.13 55.93,76.27 56.01,75.95 C56.09,75.63 57.22,71.68 57.22,71.68 C57.22,71.68 53.67,61.21 53.1,56.7 C52.54,52.19 51.65,38.51 50.77,38.03 C49.89,37.55 46.67,37.39 45.06,38.43 Z" fill="#FBDE93"/>
  <path d="M63.01,38.67 C61.8,39.79 60.6,54.61 60.11,60.08 C59.62,65.55 59.22,73.6 59.22,73.6 L64.61,73.2 C64.61,73.2 66.62,53.32 66.94,50.74 C67.26,48.16 68.71,42.29 67.99,39.95 C67.27,37.63 64.05,37.71 63.01,38.67 Z" fill="#FBDE93"/>
  <path d="M26.82,59.43 C26.48,60.2 36.99,117.71 37.16,118.57 C37.33,119.43 36.99,120.21 38.62,120.98 C40.26,121.75 42.82,122.16 44.46,122.34 C46.1,122.51 57.39,122.53 57.48,121.16 C57.57,119.78 91.32,70.62 91.32,70.62 C91.32,70.62 97.54,60.19 97.11,59.33 C96.68,58.47 95,58.87 93.17,60.12 C91.34,61.38 89.65,64.49 84.51,67.94 C78.94,71.68 71.56,72.47 64.14,72.38 C57.3,72.29 49.17,71.05 43.35,66.74 C38.23,62.94 36.72,60.2 32.16,58.99 C28.14,57.92 26.82,59.43 26.82,59.43 Z" fill="#FD703F"/>
  <path d="M34.77,63.19 L44.31,122.36 C44.31,122.36 55.68,124 64.54,124.17 C73.41,124.34 83.98,122.49 83.98,122.49 L91.66,96.53 L98.18,62.28 C98.18,62.28 96.57,60.67 94.76,62 C93.37,63.02 89.08,69.66 81.5,72.59 C72.95,75.89 57.54,76.13 47.92,72.07 C39.1,68.36 36.41,63.53 34.77,63.19 Z" fill="#FF2A23"/>
  <path d="M89.51,120.67 C87.57,121.83 83.05,122.61 83.05,122.61 C83.05,122.61 87.53,100.83 90.02,89.46 C92.51,78.09 96.1,58.86 96.1,58.86 C96.1,58.86 97.54,58.63 99.02,58.81 C100.7,59.02 101.7,59.51 102.04,60.04 C102.59,60.9 99.28,76.96 96.04,92.64 C93.08,107.04 90.54,120.06 89.51,120.67 Z" fill="#DC0D25"/>
</svg>
